assets/svg/1F607.svg

<svg xmlns="http://www.w3.org/2000/svg" viewBox="0 0 64 64" enable-background="new 0 0 64 64"><circle fill="#fbb041" cx="31.991" cy="31.749" r="31.376"/><g opacity=".987"><path fill="#e79d3c" d="m15.546 40.82c-5.557-11.927-5.809-24.766-.779-35.38-8.522 5.608-14.15 15.246-14.15 26.21 0 17.331 14.05 31.375 31.375 31.375.31 0 .612-.039.918-.047-7.192-6.05-13.253-13.339-17.361-22.16"/></g><g fill="#633d19"><path d="m44.23 39.04c-.612 0-1.225 0-1.837 0-.093 0-.158.035-.244.048-.093.016-.182.018-.274.057-.159.061-.287.151-.399.258-.023.023-.055.025-.077.05-4.426 4.313-10.224 5.298-15.746 2.457-2.965-1.522-2.721-2.869-5.895-2.869-1.298 0-1.783 1.506-1 2.406 7.162 8.265 19.307 8.265 26.468 0 .783-.901.302-2.407-.996-2.407"/><path d="m29.11 24.969c-1.356-3.705-4.435-7.251-8.685-7.167-3.964.076-6.354 4.269-7.644 7.444-.806 1.982 2.403 2.833 3.199.88.829-2.039 2.052-4.288 4.294-4.972 2.567-.785 4.919 2.742 5.636 4.697.73 1.991 3.937 1.131 3.2-.882"/><path d="m34.872 24.932c1.356-3.705 4.434-7.25 8.685-7.169 3.965.077 6.352 4.271 7.642 7.446.809 1.982-2.402 2.835-3.196.882-.83-2.039-2.055-4.29-4.294-4.972-2.569-.787-4.922 2.74-5.637 4.697-.731 1.989-3.936 1.127-3.2-.884"/></g><path fill="#28a6de" d="m31.991.374c-17.668 0-31.991 3.457-31.991 7.722 0 4.265 14.323 7.723 31.991 7.723s31.991-3.458 31.991-7.723c-.0001-4.265-14.324-7.722-31.991-7.722m-.279 9.101c-9.782 0-17.714-1.915-17.714-4.274 0-2.364 7.933-4.276 17.714-4.276 9.785 0 17.718 1.913 17.718 4.276 0 2.36-7.933 4.274-17.718 4.274"/></svg>

<?xml version="1.0" encoding="UTF-8" standalone="no"?>
<!-- Generator: Adobe Illustrator 16.0.0, SVG Export Plug-In . SVG Version: 6.00 Build 0)  -->

<svg
   xmlns:dc="http://purl.org/dc/elements/1.1/"
   xmlns:cc="http://creativecommons.org/ns#"
   xmlns:rdf="http://www.w3.org/1999/02/22-rdf-syntax-ns#"
   xmlns:svg="http://www.w3.org/2000/svg"
   xmlns="http://www.w3.org/2000/svg"
   xmlns:sodipodi="http://sodipodi.sourceforge.net/DTD/sodipodi-0.dtd"
   xmlns:inkscape="http://www.inkscape.org/namespaces/inkscape"
   version="1.1"
   id="Layer_1"
   x="0px"
   y="0px"
   width="64px"
   height="64px"
   viewBox="0 0 64 64"
   enable-background="new 0 0 64 64"
   xml:space="preserve"
   inkscape:version="0.48.5 r10040"
   sodipodi:docname="1F607.svg"
   inkscape:export-filename="D:\TESTINGEMOJI\SVGTEST\1F607.png"
   inkscape:export-xdpi="90"
   inkscape:export-ydpi="90"><metadata
   id="metadata4006"><rdf:RDF><cc:Work
       rdf:about=""><dc:format>image/svg+xml</dc:format><dc:type
         rdf:resource="http://purl.org/dc/dcmitype/StillImage" /><dc:title></dc:title></cc:Work></rdf:RDF></metadata><defs
   id="defs4004" /><sodipodi:namedview
   pagecolor="#ffffff"
   bordercolor="#666666"
   borderopacity="1"
   objecttolerance="10"
   gridtolerance="10"
   guidetolerance="10"
   inkscape:pageopacity="0"
   inkscape:pageshadow="2"
   inkscape:window-width="640"
   inkscape:window-height="480"
   id="namedview4002"
   showgrid="false"
   inkscape:zoom="3.6875"
   inkscape:cx="32"
   inkscape:cy="32"
   inkscape:window-x="900"
   inkscape:window-y="333"
   inkscape:window-maximized="0"
   inkscape:current-layer="Layer_1" />
<g
   id="g3970">
	<g
   id="g3972">
		<g
   id="g3974">
			<circle
   fill="#FBB041"
   cx="31.991"
   cy="31.749"
   r="31.376"
   id="circle3976" />
		</g>
	</g>
	<g
   opacity="0.9866"
   id="g3978">
		<g
   id="g3980">
			<g
   id="g3982">
				<path
   fill="#E79D3C"
   d="M15.546,40.82C9.989,28.893,9.737,16.054,14.767,5.439C6.245,11.047,0.614,20.685,0.614,31.648      c0,17.331,14.048,31.375,31.375,31.375c0.31,0,0.612-0.039,0.918-0.047C25.715,56.923,19.654,49.637,15.546,40.82z"
   id="path3984" />
			</g>
		</g>
	</g>
	<g
   id="g3986">
		<g
   id="g3988">
			<path
   fill="#633D19"
   d="M44.227,39.044c-0.612,0-1.225,0-1.837,0c-0.093,0-0.158,0.035-0.244,0.048     c-0.093,0.016-0.182,0.018-0.274,0.057c-0.159,0.061-0.287,0.151-0.399,0.258c-0.023,0.023-0.055,0.025-0.077,0.05     c-4.426,4.313-10.224,5.298-15.746,2.457c-2.965-1.522-2.721-2.869-5.895-2.869c-1.298,0-1.783,1.506-1,2.406     c7.162,8.265,19.307,8.265,26.468,0C46.006,40.55,45.525,39.044,44.227,39.044z"
   id="path3990" />
		</g>
	</g>
	<path
   fill="#633D19"
   d="M29.107,24.969c-1.356-3.705-4.435-7.251-8.685-7.167c-3.964,0.076-6.354,4.269-7.644,7.444   c-0.806,1.982,2.403,2.833,3.199,0.88c0.829-2.039,2.052-4.288,4.294-4.972c2.567-0.785,4.919,2.742,5.636,4.697   C26.637,27.842,29.844,26.982,29.107,24.969z"
   id="path3992" />
	<path
   fill="#633D19"
   d="M34.872,24.932c1.356-3.705,4.434-7.25,8.685-7.169c3.965,0.077,6.352,4.271,7.642,7.446   c0.809,1.982-2.402,2.835-3.196,0.882c-0.83-2.039-2.055-4.29-4.294-4.972c-2.569-0.787-4.922,2.74-5.637,4.697   C37.341,27.805,34.136,26.943,34.872,24.932z"
   id="path3994" />
	<g
   id="g3996">
		<g
   id="g3998">
			<path
   fill="#28A6DE"
   d="M31.991,0.374C14.323,0.374,0,3.831,0,8.096c0,4.265,14.323,7.723,31.991,7.723     s31.991-3.458,31.991-7.723C63.981,3.831,49.658,0.374,31.991,0.374z M31.712,9.475c-9.782,0-17.714-1.915-17.714-4.274     c0-2.364,7.933-4.276,17.714-4.276c9.785,0,17.718,1.913,17.718,4.276C49.43,7.561,41.497,9.475,31.712,9.475z"
   id="path4000" />
		</g>
	</g>
</g>
</svg>
